resources/utilities/icons/proton_pass.svg

<?xml version="1.0" encoding="UTF-8"?>
<svg version="1.1" viewBox="0 0 192 192" xml:space="preserve" xmlns="http://www.w3.org/2000/svg"><defs><radialGradient id="paint0_radial_1_680" cx="0" cy="0" r="1" gradientTransform="matrix(30.418 -48.949 76.545 47.568 20.836 79.865)" gradientUnits="userSpaceOnUse"><stop stop-color="#f8c18c" offset="0"/><stop stop-color="#f8c18c" offset=".09375"/><stop stop-color="#f8c18c" offset=".205"/><stop stop-color="#fcecdc" offset=".32447"/><stop stop-color="#fcecdc" offset=".42875"/><stop stop-color="#bd9aff" offset=".53375"/><stop stop-color="#bd9aff" offset=".64875"/><stop stop-color="#bd9aff" offset=".77125"/><stop stop-color="#8c72bd" offset=".89125"/><stop stop-color="#8c72bd" offset="1"/></radialGradient><linearGradient id="paint1_linear_1_680" x1="18.458" x2="31.884" y1="-4.2273" y2="77.726" gradientUnits="userSpaceOnUse"><stop stop-color="#8c72bd" offset="0"/><stop stop-color="#bd9aff" offset=".39201"/><stop stop-color="#fdf5d9" offset="1"/></linearGradient><radialGradient id="paint2_radial_1_680" cx="0" cy="0" r="1" gradientTransform="matrix(24.467 -39.372 61.569 38.261 15.773 72.847)" gradientUnits="userSpaceOnUse"><stop stop-color="#fdf5d9" offset="0"/><stop stop-color="#f8c18c" offset=".09375"/><stop stop-color="#f8c18c" offset=".205"/><stop stop-color="#f8c18c" offset=".28001"/><stop stop-color="#ffb0ac" offset=".40275"/><stop stop-color="#ffb0ac" offset=".48109"/><stop stop-color="#bd9aff" offset=".61792"/><stop stop-color="#bd9aff" offset=".74605"/><stop stop-color="#8c72bd" offset=".88096"/><stop stop-color="#8c72bd" offset="1"/></radialGradient><clipPath id="clip0_1_680"><rect width="335" height="88" fill="#fff"/></clipPath></defs>
	 <g transform="matrix(2.5186 0 0 2.5186 9.0599 -13.845)" fill="none"><g clip-path="url(#clip0_1_680)"><path d="m20.76 18.202c4.816-4.816 7.224-7.2241 10.001-8.1263 2.4424-0.79358 5.0735-0.79358 7.5159 0 2.7768 0.9022 5.1848 3.3103 10.001 8.1263l12.039 12.039c4.816 4.816 7.224 7.224 8.1262 10.001 0.7936 2.4425 0.7936 5.0735 0 7.516-0.9022 2.7767-3.3102 5.1847-8.1262 10.001l-12.039 12.039c-4.816 4.816-7.224 7.2241-10.001 8.1263-2.4424 0.7936-5.0735 0.7936-7.5159 0-2.7768-0.9022-5.1848-3.3103-10.001-8.1263l-2.2634-2.5375c-1.3697-1.5356-2.0546-2.3034-2.5429-3.1766-0.433-0.7745-0.7508-1.608-0.9431-2.4743-0.2169-0.9767-0.2169-2.0055-0.2169-4.0632v-27.092c0-2.0577 0-3.0865 0.2168-4.0632 0.1924-0.8662 0.5101-1.6998 0.9432-2.4743 0.4883-0.8732 1.1731-1.641 2.5429-3.1766z" fill="url(#paint0_radial_1_680)"/><path d="m20.76 18.202c4.816-4.816 7.224-7.2241 10.001-8.1263 2.4424-0.79358 5.0735-0.79358 7.5159 0 2.7768 0.9022 5.1848 3.3103 10.001 8.1263l12.039 12.039c4.816 4.816 7.224 7.224 8.1262 10.001 0.7936 2.4425 0.7936 5.0735 0 7.516-0.9022 2.7767-3.3102 5.1847-8.1262 10.001l-12.039 12.039c-4.816 4.816-7.224 7.2241-10.001 8.1263-2.4424 0.7936-5.0735 0.7936-7.5159 0-2.7768-0.9022-5.1848-3.3103-10.001-8.1263l-2.2634-2.5375c-1.3697-1.5356-2.0546-2.3034-2.5429-3.1766-0.433-0.7745-0.7508-1.608-0.9431-2.4743-0.2169-0.9767-0.2169-2.0055-0.2169-4.0632v-27.092c0-2.0577 0-3.0865 0.2168-4.0632 0.1924-0.8662 0.5101-1.6998 0.9432-2.4743 0.4883-0.8732 1.1731-1.641 2.5429-3.1766z" fill="url(#paint1_linear_1_680)"/><path d="m19.9 19.062c2.408-2.408 3.612-3.612 5.0004-4.0631 1.2212-0.3968 2.5367-0.3968 3.758 0 1.3883 0.4511 2.5923 1.6551 5.0004 4.0631l18.058 18.058c2.408 2.408 3.612 3.612 4.0631 5.0004 0.3968 1.2212 0.3968 2.5368 0 3.758-0.4511 1.3884-1.6551 2.5924-4.0631 5.0004l-18.058 18.058c-2.408 2.408-3.612 3.612-5.0003 4.0631-1.2213 0.3968-2.5368 0.3968-3.758 0-1.3884-0.4511-2.5924-1.6551-5.0004-4.0631l-11.179-11.179c-4.816-4.816-7.224-7.224-8.1262-10.001-0.79361-2.4425-0.79361-5.0735 1e-6 -7.516 0.90221-2.7767 3.3102-5.1847 8.1262-10.001z" fill="url(#paint2_radial_1_680)"/></g></g></svg>

<?xml version="1.0" encoding="UTF-8" standalone="no"?>
<!-- Created with Inkscape (http://www.inkscape.org/) -->

<svg
   width="192"
   height="192"
   viewBox="0 0 192 192"
   version="1.1"
   id="svg5"
   xml:space="preserve"
   inkscape:version="1.2.1 (9c6d41e410, 2022-07-14)"
   sodipodi:docname="proton_pass.svg"
   xmlns:inkscape="http://www.inkscape.org/namespaces/inkscape"
   xmlns:sodipodi="http://sodipodi.sourceforge.net/DTD/sodipodi-0.dtd"
   xmlns="http://www.w3.org/2000/svg"
   xmlns:svg="http://www.w3.org/2000/svg"><sodipodi:namedview
     id="namedview7"
     pagecolor="#505050"
     bordercolor="#eeeeee"
     borderopacity="1"
     inkscape:showpageshadow="0"
     inkscape:pageopacity="0"
     inkscape:pagecheckerboard="0"
     inkscape:deskcolor="#505050"
     inkscape:document-units="mm"
     showgrid="false"
     showguides="true"
     inkscape:zoom="4.0364583"
     inkscape:cx="90.054194"
     inkscape:cy="96"
     inkscape:window-width="1920"
     inkscape:window-height="991"
     inkscape:window-x="-9"
     inkscape:window-y="-9"
     inkscape:window-maximized="1"
     inkscape:current-layer="layer1" /><defs
     id="defs2"><linearGradient
       id="paint1_linear_1_680"
       x1="18.458"
       y1="-4.22733"
       x2="31.8839"
       y2="77.7265"
       gradientUnits="userSpaceOnUse"><stop
         stop-color="#6D4AFF"
         id="stop233"
         offset="0"
         style="stop-color:#73ada4;stop-opacity:1;" /><stop
         offset="0.39200899"
         stop-color="#B39FFB"
         stop-opacity="0.978022"
         id="stop235"
         style="stop-color:#bd9aff;stop-opacity:1;" /><stop
         offset="1"
         stop-color="#FFE8DB"
         stop-opacity="0.8"
         id="stop237"
         style="stop-color:#fcecdc;stop-opacity:1;" /></linearGradient><radialGradient
       id="paint2_radial_1_680"
       cx="0"
       cy="0"
       r="1"
       gradientUnits="userSpaceOnUse"
       gradientTransform="matrix(24.46664,-39.371604,61.569172,38.260844,15.7734,72.8468)"><stop
         stop-color="#FFD580"
         id="stop240"
         offset="0"
         style="stop-color:#f9de81;stop-opacity:1;" /><stop
         offset="0.4037343"
         stop-color="#DFA5AF"
         id="stop246"
         style="stop-color:#f8c18c;stop-opacity:1;" /><stop
         offset="1"
         stop-color="#B578D9"
         id="stop252"
         style="stop-color:#8c72bd;stop-opacity:1;" /></radialGradient><clipPath
       clipPathUnits="userSpaceOnUse"
       id="clipPath428"><g
         id="g432"><rect
           width="335"
           height="88"
           fill="#ffffff"
           id="rect430"
           x="0"
           y="0" /></g></clipPath><clipPath
       clipPathUnits="userSpaceOnUse"
       id="clipPath434"><g
         id="g438"><rect
           width="335"
           height="88"
           fill="#ffffff"
           id="rect436"
           x="0"
           y="0" /></g></clipPath><linearGradient
       id="paint1_linear_1_680-9"
       x1="18.458"
       y1="-4.22733"
       x2="31.8839"
       y2="77.7265"
       gradientUnits="userSpaceOnUse"><stop
         stop-color="#6D4AFF"
         id="stop233-2"
         offset="0"
         style="stop-color:#73ada4;stop-opacity:1;" /><stop
         offset="0.39200899"
         stop-color="#B39FFB"
         stop-opacity="0.978022"
         id="stop235-4"
         style="stop-color:#bd9aff;stop-opacity:0.97647059;" /><stop
         offset="1"
         stop-color="#FFE8DB"
         stop-opacity="0.8"
         id="stop237-6"
         style="stop-color:#fcecdc;stop-opacity:0.80000001;" /></linearGradient><radialGradient
       id="paint2_radial_1_680-6"
       cx="0"
       cy="0"
       r="1"
       gradientUnits="userSpaceOnUse"
       gradientTransform="matrix(24.46664,-39.371604,61.569172,38.260844,15.7734,72.8468)"><stop
         stop-color="#FFD580"
         id="stop240-3"
         offset="0"
         style="stop-color:#f9de81;stop-opacity:1;" /><stop
         offset="0.4037343"
         stop-color="#DFA5AF"
         id="stop246-4"
         style="stop-color:#f8c18c;stop-opacity:1;" /><stop
         offset="1"
         stop-color="#B578D9"
         id="stop252-6"
         style="stop-color:#8c72bd;stop-opacity:1;" /></radialGradient><clipPath
       clipPathUnits="userSpaceOnUse"
       id="clipPath428-7"><g
         id="g432-4"><rect
           width="335"
           height="88"
           fill="#ffffff"
           id="rect430-0"
           x="0"
           y="0" /></g></clipPath><clipPath
       clipPathUnits="userSpaceOnUse"
       id="clipPath434-7"><g
         id="g438-1"><rect
           width="335"
           height="88"
           fill="#ffffff"
           id="rect436-0"
           x="0"
           y="0" /></g></clipPath></defs><g
     inkscape:label="Layer 1"
     inkscape:groupmode="layer"
     id="layer1"
     transform="matrix(1.090909,0,0,1.0909093,-8.7272727,-8.7272957)"><path
       d="m 20.7604,18.2024 c 4.816,-4.816 7.224,-7.2241 10.0008,-8.1263 2.4424,-0.79358 5.0735,-0.79358 7.5159,0 2.7768,0.9022 5.1848,3.3103 10.0008,8.1263 l 12.0389,12.0389 c 4.816,4.816 7.224,7.224 8.1262,10.0007 0.7936,2.4425 0.7936,5.0735 0,7.516 -0.9022,2.7767 -3.3102,5.1847 -8.1262,10.0007 L 48.2779,69.7976 c -4.816,4.816 -7.224,7.2241 -10.0008,8.1263 -2.4424,0.7936 -5.0735,0.7936 -7.5159,0 -2.7768,-0.9022 -5.1848,-3.3103 -10.0008,-8.1263 L 18.497,67.2601 C 17.1273,65.7245 16.4424,64.9567 15.9541,64.0835 15.5211,63.309 15.2033,62.4755 15.011,61.6092 14.7941,60.6325 14.7941,59.6037 14.7941,57.546 V 30.454 c 0,-2.0577 0,-3.0865 0.2168,-4.0632 0.1924,-0.8662 0.5101,-1.6998 0.9432,-2.4743 0.4883,-0.8732 1.1731,-1.641 2.5429,-3.1766 z"
       fill="url(#paint1_linear_1_680)"
       id="path206"
       style="fill:url(#paint1_linear_1_680);stroke-width:1.00073;stroke-dasharray:none"
       clip-path="url(#clipPath434)"
       transform="matrix(2.5493133,0,0,2.5493133,8,-16.169803)" /><path
       d="m 19.9004,19.0616 c 2.408,-2.408 3.612,-3.612 5.0004,-4.0631 1.2212,-0.3968 2.5367,-0.3968 3.758,0 1.3883,0.4511 2.5923,1.6551 5.0004,4.0631 l 18.0583,18.0583 c 2.408,2.408 3.612,3.612 4.0631,5.0004 0.3968,1.2212 0.3968,2.5368 0,3.758 -0.4511,1.3884 -1.6551,2.5924 -4.0631,5.0004 L 33.6591,68.937 c -2.408,2.408 -3.612,3.612 -5.0003,4.0631 -1.2213,0.3968 -2.5368,0.3968 -3.758,0 C 23.5124,72.549 22.3084,71.345 19.9004,68.937 L 8.72144,57.758 C 3.90543,52.942 1.49742,50.534 0.595207,47.7573 c -0.79361,-2.4425 -0.793609,-5.0735 10e-7,-7.516 C 1.49742,37.4646 3.90543,35.0566 8.72144,30.2406 Z"
       fill="url(#paint2_radial_1_680)"
       id="path208"
       style="fill:url(#paint2_radial_1_680);stroke-width:1.00073;stroke-dasharray:none"
       clip-path="url(#clipPath428)"
       transform="matrix(2.5493133,0,0,2.5493133,8,-16.169803)" /></g></svg>
